X:58
T:Crossing the Shannon
R:Reel
O:Ireland
S:Music from Ireland Vol. 3
B:Music from Ireland Vol. 3
Z:Transcription, chords:Mike Long
M:C|
L:1/8
K:D
FG|\
"D"Ad ~d2 AdFd|"D"Ad ~d2 "A"fdBd|\
"D"Ad ~d2 AdFd|"G"AGFD "A"EFGB|\
"D"Ad ~d2 AdFd|
"D"Ad ~d2 "A"fdBd|"D"Adfa "G"gefa|"A"gece "D"d2:|\
|:FG|\
"D"Ad ~d2 "G"fage|"D"fage "A"fdBd|
"D"Ad ~d2 AdFd|"D"AGFD "A"EFGB|"D"Ad ~d2 "G"fage|\
"D"fage "A"fdBd|"D"Adfa "G"gefa|"A"gece "D"d2:|
